img/red-steering-wheel.svg

<svg width="32" height="32" viewBox="0 0 32 32" fill="none" xmlns="http://www.w3.org/2000/svg">
<path d="M16.0755 0.974121C7.73635 0.974121 0.892822 7.81765 0.892822 16.1568C0.892822 24.496 7.73635 31.3395 16.0755 31.3395C24.4147 31.3395 31.2582 24.496 31.2582 16.1568C31.2582 7.81765 24.4147 0.974121 16.0755 0.974121ZM16.0755 27.7218C9.69882 27.7218 4.51058 22.5335 4.51058 16.1568C4.51058 9.78012 9.69882 4.59188 16.0755 4.59188C22.4522 4.59188 27.6405 9.78012 27.6405 16.1568C27.6405 22.5335 22.4522 27.7218 16.0755 27.7218Z" fill="#E51937"/>
<path d="M17.8546 13.488C17.8546 14.4707 17.0581 15.2672 16.0754 15.2672C15.0926 15.2672 14.2961 14.4707 14.2961 13.488C14.2961 12.5052 15.0926 11.7087 16.0754 11.7087C17.0581 11.7087 17.8546 12.5052 17.8546 13.488Z" fill="#E51937"/>
<path d="M16.0754 17.0465C14.4994 17.0465 13.1751 16.01 12.7088 14.5882C10.3543 14.8449 8.15878 15.3379 6.295 16.0547C6.29454 16.089 6.28967 16.1223 6.28967 16.1569C6.28967 17.185 6.45115 18.1756 6.74629 19.1074C8.20211 18.3475 9.62757 17.9361 10.7377 17.9361C11.6665 17.9361 12.3798 18.1986 12.9175 18.7398C14.1607 19.9882 14.3031 22.5222 14.3059 25.7739C14.8807 25.8796 15.4705 25.9426 16.0754 25.9426C16.6805 25.9426 17.2704 25.8796 17.8456 25.7739C17.8477 22.5248 17.9895 19.9896 19.2333 18.7398C19.771 18.1993 20.4834 17.9361 21.4131 17.9361C22.5086 17.9361 23.9371 18.3318 25.4066 19.1016C25.7008 18.1717 25.8611 17.1829 25.8611 16.1569C25.8611 16.123 25.8563 16.0904 25.856 16.0568C23.8368 15.2781 21.6026 14.8245 19.4423 14.5878C18.9759 16.01 17.6517 17.0465 16.0754 17.0465Z" fill="#E51937"/>
</svg>

<svg width="32" height="32" fill="none" xmlns="http://www.w3.org/2000/svg"><path d="M16.076.974C7.736.974.893 7.818.893 16.157c0 8.339 6.843 15.183 15.183 15.183 8.339 0 15.182-6.844 15.182-15.183 0-8.34-6.843-15.183-15.182-15.183zm0 26.748c-6.377 0-11.565-5.189-11.565-11.565 0-6.377 5.188-11.565 11.565-11.565 6.376 0 11.564 5.188 11.564 11.565s-5.188 11.565-11.564 11.565z" fill="#E51937"/><path d="M17.855 13.488a1.78 1.78 0 11-3.559 0 1.78 1.78 0 013.559 0z" fill="#E51937"/><path d="M16.075 17.047c-1.576 0-2.9-1.037-3.366-2.459-2.355.257-4.55.75-6.414 1.467 0 .034-.005.067-.005.102 0 1.028.161 2.019.456 2.95 1.456-.76 2.882-1.17 3.992-1.17.928 0 1.642.262 2.18.803 1.243 1.248 1.385 3.782 1.388 7.034a9.764 9.764 0 001.77.169c.604 0 1.194-.063 1.77-.17.002-3.248.143-5.783 1.387-7.033.538-.54 1.25-.804 2.18-.804 1.096 0 2.524.396 3.994 1.166.294-.93.454-1.92.454-2.945 0-.034-.005-.067-.005-.1-2.02-.779-4.253-1.232-6.414-1.47-.466 1.423-1.79 2.46-3.367 2.46z" fill="#E51937"/></svg>
